X: 41225
T: Trotting Down The Lane
R: hornpipe
M: 4/4
K: Amajor
|:AFEC A,CEA|ceag fedc|dBGB dcdf|bagf edcB|
AFEC A,CEA|ceag fedc|dBec dBGB|1 c2 A2 A2 cB:|2 c2 A2 A2 z B||
|:BAEA cAce|dBGB dcdB|cAEA cAce|fedc BEG_B|BAEA c2 ce|
dBGB dcdB|1 eagf edcB|BAGB A2 AB:|2 eagf eacB|A2 GB A2 AB||
|:BAeA cAec|cBfB d/c/B fB|agaf eAce|fedc BEGB|
BAeA BAec|d/c/B fB d/c/B fB|agaf ecAc|1 BEGB AAAB:|2 BEGB A2 z2||

